!!!OTL: Meikuang haozi
!!!ARE: Asia, China,ÿHeilongjiang, Jixiliumao kuang
!! III, 76
!!!SCT: C1549
!!!YEM: Copyright 1995, estate of Helmut Schaffrath.
**kern
*ICvox
*Ivox
*M2/4
*k[f#c#]
*D:
{4.a
16f#
16a
=1
8f#
8f#
8a
16f#
16a
=2
4.a
8b}
=3
{8f#
8f#
8a
8a
=4
8a
8b
4f#
=5
8ee
8ee
8ff#
8ee
=6
4a
4b
=7
4a
4r}
=8
{4.a
8b
=9
4.dd
16cc#
16b
=10
8a
8b
8a
8f#
=11
4a
4r
=12
4f#
8a
8f#
=13
8e
8f#
8e
8B
=14
4d
4d}
==
!!!AGN: Haozi, Meikuang haozi, Zhaohuan hao
!!!AMT: simple duple
!!!AIN: vox
!!!EED: Helmut Schaffrath
!!!EEV: 1.0
*-
